X:830
T:Duchess Hamilton
A:Wyresdale, Lancashire
B:E and J Winder, 1835-41
L:1/8
M:6/8
O:England
Z:Richard Robinson 
%%RRN:"a Good Scotch tune"
%%TUNEURL: http://www.leeds.ac.uk/music/Info/RRTuneBk/gettune/00001084.html
%%ID:00001084
K:D
f | \
ecA def | ecA d2f | ecA ecA | BcB d2f |
ecA def | ecA d2e | faf edc | BcB d2 ::
f | \
ecA acA | ecA d2f | ecA acA | BcB d2f |
ecA acA | ecA d2e | faf edc | BcB d2 :|
